X:690
T:Return from Fingal
S:Crieff session
O:Ireland
Z:Nigel Gatherer
M:2/4
L:1/16
K:E dor
BAGF  EFGA  | BAGF  E3 B | ADFA d2 A2 | B3  A BcdA |
BAGF  EFGA  | BAGF  E3 B | ADFA d2 A2 | F2 E2 E4  :|
f2 e2 e2 dc | B2 A2 d3 A | B3 A d3  A | B3  A Bcde |
f2 e2 e2 dc | B2 A2 d3 B | ADFA d2 A2 | F2 E2 E3  :|
